X:1
T:Hilff Gott das wir die Obrikeit
T:Adam Gumpelzhaimer
T:Source : Neüe Teütsche Geistliche Lieder mi 3 stimmen---Augsburg---V.Schönigk---1591. Editor : André Vierendeels (03/07/16).
T:Notes : Original clefs : C1, C2, C4 Editorial accidentals above the staff Text Middle German
T:Hilff Gott das wir die Obrikeit
T:©
T:©
T:©
T:©
C:Adam Gumpelzhaimer
Z:©
%%score [ 1 2 3 ]
L:1/8
Q:1/4=94
M:4/4
K:C
V:1 treble nm="Soprano" snm="S"
V:2 treble nm="Alto" snm="A"
V:3 treble-8 nm="Tenor" snm="T"
V:1
 A4 A2 B2 | c6 A2 | G4 E4 | ^F2 G2 A2 c2 | c2 B2 A4 | B4 z4 | A4 A2 B2 | c6 A2 | G4 E4 | %9
w: Hilf Gott das|wir die|O- bri-|keit welch da ist|Got- tes- ord-|nung,|ge- hor- sam|sein inn|lieb und|
w: A- ber das|Herz uns|hal- te|rein, das er nir-|gends hin wan-|cke,|dein Wort das-|selb re-|gier al-|
w: Lasz uns in|der be-|kent- nusz|dein mit Gut und|Blut ausz- hal-|ten,|inn ver- fol-|gung und|gros- ser|
 ^F2 G2 A2 c2 | c2 B2 A4 | B2 d2 e2 B2 | c2 A2 G3 F | E2 A2 D2 E2 | F2 D2 E4 | D4 C4 | %16
w: leid und fol- gen|ihr an- for-|dung, inn dem was|leib und güt be-|rifft wi- der g'wis-|sen und un-|ser pflicht,|
w: lein das nicht ihns|Teüf- fels gstan-|cke ge- fürts _|werd, ver- las- se|dich auff fal- sche|Lehr be- ge-|be sich,|
w: pein lasz uns ja|nicht er- hal-|ten, lasz uns ja|nicht er- fal- *|ten, halt ü- ber|uns dein re-|chte Hand,|
 z2 D2 E2 F2 | G2 G4 A2- | A2 B2 c3 B | ABcd e2 d2- | d2 c2 d2 D2 |"^-natural" E2 F2 G2 A2 | %22
w: uns wi- der|sie, uns wi-|* der sie _|_ _ _ _ _ nit|_ se- tzen, uns|wi- der sie, uns|
w: da- bei gut|tag, da- bei|_ güt täg zu|ha- * * * * *|* * ben, da-|bei gut tag, da-|
w: dein Nam und|Wort, dein Nam|_ und Wort mach|uns _ _ _ _ _|_ be- kandt, da-|von lasz uns, da-|
 A2 B2 c3 B | ABcd e2 d2 | ^c2 d4 c2 | !fermata!d8 |] %26
w: wi- der sie _|_ _ _ _ _ nicht|se- * *|tzen.|
w: bei gut tag zu|ha- * * * * *||ben.|
w: von lasz uns nit|wan- * * * * *||cken.|
V:2
 F4 E2 D2 | E6 F2 | E2 D4 ^C2 |"^-natural" D2 D2 F3 G | A2 G2 ^F4 | G4 z4 | F4 E2 D2 | E6 F2 | %8
w: Hilff Gott das|wir die|O- bri- *|keit welch da ist|Got- tes- ord-|nung,|ge- hor- sam|sein inn|
w: A- ber das|Herz uns|hal- * te|rein, das er nir-|gends hin wan-|cke,|dein Wort das-|selb re-|
w: Lasz uns in|der be-|kent- * nusz|dein mit Gut und|Blut ausz- hal-|ten,|in ver- fol-|gung und|
 E2 D4 ^C2 |"^-natural" D2 D2 F3 G | A2 G2 ^F4 | G4 z2 G2 | A2 ^F2 G2 D2 |"^-natural" G2 F2 G4 | %14
w: lieb und _|leid und fol- gen|ihr an- for-|dung, inn|dem was leib und|güt be- trifft|
w: gier _ al-|lein das nicht ihns|Teüf- fels gstan-|cke ver-|las- se dich auff|fal- sche Lehr|
w: gros- * se|pein, lasz uns ja|nicht er- fal-|ten, halt|ü- ber uns dein|re- chte Hand|
 z2 ^F2 G2 E2 | F2 D2 E4 | D4 C4 | z2 D2 E2 F2 | E2 G2 F2 E2 | c2 A2 G3 F | E4 ^F4 | %21
w: wi- der g'wis-|sen und un-|ser pflicht,|uns wi- der|sie, uns wi- der|sie nicht se- *|* tzen,|
w: auff Fal- sche|Lehr be- ge-|be sich,|da- bei gut|tag, da- bei güt|täg zu ha- *|* ben,|
w: dein Nam und|Wort mach uns|be- kant,|da- von lasz|uns, da- von lasz|uns nit wan- *|* cken,|
"^-natural" z2 D2 E2 F2 | E2 G2 F2 E2 | c2 A2 G3 F | E8 | !fermata!^F8 |] %26
w: und wi- der|sie, und wi- der|sie nicht se- *||tzen.|
w: da- bei gut|tag, da- bei gut|tag zu ha- *||ben.|
w: da- von lasz|uns, da- von lasz|uns nit wan- *||cken.|
V:3
 d4 c2 B2 | A6 F2 | G4 A4 |"^-natural" D2 G2 F3 E |"^-natural" F2 G2 D4 | G8 | d4 c2 B2 | A6 F2 | %8
w: Hilff Gott das|wir die|O- bri-|keit welch da ist|Got- tes- ord-|nung,|ge- hor- sam|sein inn|
w: A- ber das|Herz uns|hal- te|rein, das er nir-|gends hin wan-|cke,|dein Wort das-|selb re-|
w: Lasz uns in|der be-|kent- nusz|dein mit Gut und|Blut ausz- hal-|ten,|in ver- fol-|gung und|
 G4 A4 |"^-natural" D2 G2 F3 E | F2 G2 D4 | G8 | z2 d2 e2 B2 | c2 A2 B2 c2 | d4 z2 c2 | %15
w: lieb und|leid, und fol- gen|ihr an- for-|dung,|inn dem was|leib und güt be-|trifft wi-|
w: gier al-|lein das nicht ihns|Teüf- fels gstan-|cke|ver- las- se|dich auff fal- sche|Lehr auff|
w: gros- se|pein, lasz uns ja|nicht er- fal-|ten,|halt ü- ber|uns dein re- chte|Hand dein|
 d2 B2 c2 A2 | B4 A4 | G4 z2 d2 | c2 B2 A3 G | F4 G4 | A4 D4 | z4 z2 d2 | c2 B2 A3 G | F4 G4 | A8 | %25
w: der g'wis- sen und|un- ser|pflicht, uns|wi- der sie nicht|se- *|* tzen,|und|wi- der sie nicht|se- *||
w: fal- sche Lehr be-|ge- be|sich, da-|bei gut tag zu|ha- *|* ben,|da-|bei gut tag zu|ha- *||
w: Nam und Wort mach|uns be-|kant, da-|von lasz uns, nit|wan- *|* cken,|da-|von lasz uns nit|wan- *||
 !fermata!D8 |] %26
w: tzen.|
w: ben.|
w: cken.|

